static/images/mobile/copyright/wikipedia-wordmark-uk.svg

<?xml version="1.0" encoding="UTF-8"?>
<svg xmlns="http://www.w3.org/2000/svg" width="112" height="21" viewBox="0 0 112 21">
	<title>
		Shape
	</title>
	<g id="Page-1" fill="none" fill-rule="evenodd" stroke="none" stroke-width="1">
		<path id="Shape" fill="#000" fill-rule="nonzero" d="M86.6470865,5.15114131 L86.6881673,5.18921627 L86.6881673,5.55894417 C86.6881673,5.675173 86.6080095,5.70924007 86.5258478,5.7152519 L85.9366879,5.75232489 C85.3288245,5.79347257 85.2018901,6.01267746 85.1876671,6.61278514 L85.1862104,16.2389705 C85.1862104,16.9088607 85.5801696,17.1415945 85.9220453,17.217954 L85.9998121,17.2329273 C86.4386761,17.3060713 86.5959858,17.3711995 86.6080095,17.6036572 L86.7492877,20.4883364 L86.2697185,20.4983561 C86.2012086,20.503366 86.2012086,20.5 86.2012086,20.5 L86.1334197,20.2367875 C85.8359936,19.162826 85.0974356,17.7609669 83.6040956,17.7609669 L77.7215142,17.7609669 C76.0361963,17.7609669 75.5101606,19.4953815 75.2857188,20.5083759 L74.7376397,20.4883364 L74.8799198,17.6036572 C74.8939475,17.3711995 75.1063657,17.2619845 75.3067602,17.2329273 L75.5914613,17.1869618 C75.8639196,17.1354855 76.101575,17.0558287 76.3217585,16.84316 C76.8508,16.3351598 77.2145161,14.9323982 77.8637943,11.8924132 L78.0124167,11.1179106 C78.3628114,9.20861735 78.5531515,7.51880264 78.5531515,6.4366722 C78.5531515,6.02686539 78.3697905,5.82446692 77.8427529,5.77436829 L77.2345555,5.7152519 C77.1323543,5.7152519 77.0732379,5.675173 77.0732379,5.5980211 L77.0732379,5.18921627 L77.1133168,5.15114131 L78.7722581,5.18630378 C78.8628959,5.18749101 78.9482116,5.18836971 79.0251744,5.18883653 L84.8107165,5.1863959 C85.5337835,5.17758225 86.6470865,5.15114131 86.6470865,5.15114131 Z M112,0.0270532611 L112,0.603187525 C112,0.712402543 111.944892,0.793562326 111.811629,0.793562326 L111.000031,0.849672793 L110.683507,0.878285124 C109.806251,0.977895231 109.565207,1.21839872 109.565207,2.05704982 L109.565207,15.7540157 C109.565207,16.5318805 109.879801,16.8450031 110.848312,16.9466085 L111.756521,17.0195072 C111.86273,17.0195072 111.972947,17.1006669 111.972947,17.2379372 L111.972947,17.7599649 L111.91884,17.8160754 L108.959903,17.7623759 C108.794737,17.7608417 108.642765,17.7599649 108.511131,17.7599649 L106.676444,17.7829945 C105.811639,17.7984792 105.023265,17.8160754 105.023265,17.8160754 L104.968156,17.7599649 L104.968156,17.2379372 C104.968156,17.1006669 105.049316,17.0195072 105.185584,17.0195072 L105.887967,16.9623947 C107.025206,16.8752231 107.374894,16.5235307 107.374894,15.7540157 L107.374894,8.86445189 C104.672059,8.86445189 104.036615,9.5725848 103.021286,12.0932326 L102.615472,13.1208921 C101.53995,15.8179071 100.547703,17.7588377 98.7479099,17.7870182 L96.9623947,17.8130695 L96.9373454,17.757961 L96.9373454,17.2359332 L96.9348405,17.2349313 L96.9419192,17.1730919 C96.9591012,17.0945113 97.0084947,17.0427242 97.0728808,17.0251525 L97.3671917,16.9904499 C98.2066625,16.8855161 99.4936628,15.476623 100.838078,12.0465815 L100.964273,11.7190719 C101.641607,9.93556064 102.452203,9.24820741 103.183643,8.81034537 L103.183643,8.72818361 C101.343019,8.45464508 99.1537089,7.0809406 99.1537089,4.28142906 L99.1585229,4.04740262 C99.2356428,2.19892764 100.278822,0.0270532611 105.103422,0.0270532611 L108.250609,0.0533490309 L108.250609,0.0533490309 L112,0.0270532611 L112,0.0270532611 Z M6.99026208,0 C12.0211667,0 12.8047093,2.38770079 12.8047093,4.2253186 C12.8047093,5.71725585 11.5913204,7.12602937 10.2366534,7.82240035 L10.2366534,7.87750885 C12.5902871,8.56486207 14.4018536,10.0728309 14.4018536,12.7090209 C14.4018536,15.0676645 12.9670288,17.8160754 7.58543382,17.8160754 L6.11726211,17.8073081 C4.94129067,17.7915271 4.51012932,17.7599649 3.63766165,17.7599649 L2.79055632,17.7636979 C1.87250749,17.7720876 1.1519902,17.7934753 0.121739675,17.8160754 C-0.0405798917,17.6507499 -0.0405798917,17.0736137 0.121739675,16.9092902 L0.460248888,16.8927297 C2.07115963,16.8016055 2.47537339,16.5474528 2.47537339,14.4113724 L2.47537339,3.40370104 L2.4697461,3.00124415 C2.41228434,1.10926981 1.89710994,0.983749256 0.121739675,0.905783261 C-0.0405798917,0.742461722 -0.0405798917,0.165325485 0.121739675,0.00100197263 L1.86654977,0.0383254532 C2.40072643,0.0488461659 2.93477784,0.0561104675 3.61060839,0.0561104675 C4.77289664,0.0551084948 6.04339794,0 6.99026208,0 Z M59.2361211,5.15114131 C59.3593637,5.26636816 59.3593637,5.67617497 59.2361211,5.79340577 L58.9381868,5.80794784 C57.7678697,5.8759881 57.4706453,6.06865136 57.4706453,7.5678993 L57.4706453,15.3842878 L57.4766469,15.7192595 C57.5278883,17.0158044 57.9224237,17.104044 59.2361211,17.1587814 C59.3593637,17.2740082 59.3593637,17.684817 59.2361211,17.8010458 L57.6261938,17.7697342 C57.3152456,17.7655071 56.9873188,17.7629708 56.5999311,17.7629708 L55.8139639,17.7675396 C55.2131601,17.7746673 54.706346,17.788879 53.9827786,17.8010458 C53.8605379,17.685819 53.8605379,17.2750102 53.9827786,17.1587814 L54.2809038,17.1444149 C55.4050496,17.0796204 55.7231458,16.8979501 55.7467948,15.5579023 L55.7482544,7.41259354 C55.7482544,6.20521652 55.3033785,5.9717569 54.8134139,5.9717569 L50.817547,5.9717569 C50.3305883,5.9717569 49.8837086,6.20321257 49.8837086,7.41259354 L49.8837086,15.3842878 L49.8896796,15.7192595 C49.9406767,17.0158044 50.3336314,17.104044 51.6491843,17.1587814 C51.771425,17.2740082 51.771425,17.684817 51.6491843,17.8010458 L50.1685317,17.7716468 C49.8231403,17.7662835 49.4666017,17.7629708 49.0320318,17.7629708 L48.3235119,17.7665247 C47.669349,17.7732411 47.1403075,17.7882707 46.3948398,17.8010458 C46.2725992,17.685819 46.2725992,17.2750102 46.3948398,17.1587814 L46.6929651,17.1444149 C47.8171109,17.0796204 48.135207,16.8979501 48.1588561,15.5579023 L48.1603156,7.5678993 C48.1603156,5.95071547 47.815637,5.85252215 46.3948398,5.79340577 C46.2725992,5.67717694 46.2725992,5.26737013 46.3948398,5.15114131 L48.8927207,5.18890341 L48.8927207,5.18890341 L56.9334396,5.18764837 C57.5181555,5.18259212 58.3927941,5.1661709 59.2361211,5.15114131 Z M33.8982372,5.07298744 C34.9723518,5.07298744 35.3390738,5.63810001 35.3390738,6.08598178 C35.3390738,6.65209631 34.8721546,6.86651846 34.4463162,6.86651846 C34.1817954,6.86651846 33.8982372,6.76932711 33.6958387,6.57394245 C33.4713968,6.35851833 33.3090772,6.26032501 33.0475624,6.26032501 C32.520458,6.26032501 32.3440618,6.74499476 32.2385599,7.24080289 L32.1304003,7.79347622 C31.8879353,8.95990825 31.4104262,10.3999532 30.0015656,10.8994583 L30.0015656,10.9976516 C31.3346663,10.9976516 32.1170229,11.7574241 32.6610959,13.0086511 L32.7409588,13.1999875 C33.7980399,15.8301656 34.8300717,17.1567774 35.5404703,17.2138898 L35.8651094,17.2349313 C35.9663087,17.2349313 36.026427,17.2940477 36.026427,17.3892351 L36.026427,17.7599649 L36.0053856,17.7980399 L34.4022294,17.7780004 C32.9363805,17.7594454 32.2024253,16.4042396 31.4089424,14.5030089 L31.0628553,13.6640786 C30.3629125,12.004888 29.8864723,11.4445314 27.7280897,11.4445314 L27.7280897,16.3762407 C27.7280897,16.9205123 27.9943027,17.1077965 28.6880276,17.1800419 L29.3713248,17.2319254 C29.4514826,17.2319254 29.5326424,17.2920437 29.5326424,17.3872311 L29.5326424,17.757961 L29.4915615,17.7960359 L28.8206312,17.7740239 C28.4045934,17.7633153 28.034208,17.7597457 27.6084009,17.7585559 L26.118685,17.758849 L25.519965,17.7634332 C25.1264984,17.7684079 24.7315712,17.777905 24.2582584,17.7960359 L24.2171776,17.757961 L24.2181795,17.3892351 C24.2181795,17.2920437 24.2803018,17.2339293 24.3604597,17.2339293 L24.9085387,17.1958543 C25.7612174,17.133732 26.0046967,16.9223158 26.0046967,16.3782447 L26.0046967,6.57394245 C26.0046967,5.98879043 25.6990951,5.81344522 24.9085387,5.75432883 L24.3815011,5.71725585 C24.3003413,5.71725585 24.2191815,5.65713749 24.2191815,5.56094812 L24.2191815,5.19122021 L24.2602624,5.15314525 L25.7530672,5.18254424 C25.9861325,5.18611979 26.2239184,5.18878393 26.4853077,5.19016274 L26.8974544,5.19122021 C27.9114507,5.19122021 28.5006106,5.17118076 29.4945674,5.15314525 L29.5356483,5.19122021 L29.5356483,5.56094812 C29.5356483,5.66014341 29.474528,5.71725585 29.3733287,5.71725585 L28.8472931,5.75432883 C28.0346933,5.81645114 27.7310956,6.02786736 27.7310956,6.57394245 L27.7310956,10.6269218 C28.4615336,10.6269218 29.3743307,10.6068823 29.8612894,10.3353477 C30.9921269,9.74674446 31.3087719,8.60045066 31.4932434,7.55653914 L31.524564,7.37351661 C31.7279644,6.16613959 32.2960829,5.07298744 33.8982372,5.07298744 Z M94.5616683,5.14713342 C94.682907,5.26336224 94.682907,5.67316905 94.5616683,5.79140182 L94.2635431,5.80573772 C93.1393973,5.87029769 92.8213011,6.05050188 92.7976521,7.39207436 L92.7961925,15.3812819 C92.7961925,16.9994677 93.1418731,17.098663 94.5616683,17.1557754 C94.682907,17.2700003 94.682907,17.6818111 94.5616683,17.7980399 L93.0812026,17.7689564 C92.7359515,17.7634616 92.3796582,17.7599649 91.9455177,17.7599649 L91.2364186,17.7633779 C90.581833,17.7698594 90.0527914,17.7845133 89.3073238,17.7980399 C89.1860851,17.682813 89.1860851,17.2710023 89.3073238,17.1557754 L89.6056399,17.1412181 C90.7772932,17.0730557 91.0727996,16.8796021 91.0727996,15.3812819 L91.0727996,7.56589536 L91.0668286,7.23052657 C91.0158315,5.93252328 90.6228768,5.84521146 89.3073238,5.79140182 C89.1860851,5.67417102 89.1860851,5.26436422 89.3073238,5.14713342 L90.788105,5.17806312 C91.0181848,5.18183147 91.2531488,5.18464167 91.5128613,5.18609642 L91.9234743,5.18721232 C92.9585121,5.18721232 93.5677114,5.1661709 94.5616683,5.14713342 Z M43.5532455,5.14713342 C43.6744841,5.26336224 43.6744841,5.67316905 43.5532455,5.79140182 L43.2551046,5.80573772 C42.1308366,5.87029769 41.8119439,6.05050188 41.7882313,7.39207436 L41.7867677,15.3812819 C41.7897736,16.9994677 42.1334502,17.098663 43.5532455,17.1557754 C43.6744841,17.2700003 43.6744841,17.6818111 43.5532455,17.7980399 L42.0718567,17.7689564 C41.7265267,17.7634616 41.3702334,17.7599649 40.9360929,17.7599649 L40.2271503,17.7633779 C39.5728465,17.7698594 39.0443686,17.7845133 38.298901,17.7980399 C38.1766603,17.682813 38.1766603,17.2710023 38.298901,17.1557754 L38.5970419,17.1412181 C39.7213098,17.0757821 40.0402025,16.8948779 40.0639151,15.5548925 L40.0653787,7.56589536 C40.0653787,5.94670758 39.7196982,5.84951624 38.298901,5.79140182 C38.1766603,5.67417102 38.1766603,5.26436422 38.298901,5.14713342 L39.7802897,5.17806312 C40.0105098,5.18183147 40.2456023,5.18464167 40.5053849,5.18609642 L40.9160535,5.18721232 C41.9510912,5.18721232 42.5592886,5.1661709 43.5532455,5.14713342 Z M21.9657451,5.14713342 C22.0879857,5.26336224 22.0879857,5.67316905 21.9657451,5.79140182 L21.6676042,5.80573772 C20.5433362,5.87029769 20.2244435,6.05050188 20.2007309,7.39207436 L20.1992673,15.3812819 C20.2002693,16.9994677 20.5459498,17.098663 21.9657451,17.1557754 C22.0879857,17.2700003 22.0879857,17.6818111 21.9657451,17.7980399 L20.4843563,17.7689564 C20.1390263,17.7634616 19.782733,17.7599649 19.3485925,17.7599649 L18.6396499,17.7633779 C17.9853462,17.7698594 17.4568682,17.7845133 16.7114006,17.7980399 C16.5891599,17.682813 16.5891599,17.2710023 16.7114006,17.1557754 L17.0095415,17.1412181 C18.1338094,17.0757821 18.4527022,16.8948779 18.4764147,15.5548925 L18.4778783,7.56589536 C18.4778783,5.94670758 18.1321978,5.84951624 16.7114006,5.79140182 C16.5891599,5.67417102 16.5891599,5.26436422 16.7114006,5.14713342 L18.1927894,5.17806312 C18.4230094,5.18183147 18.6581019,5.18464167 18.9178845,5.18609642 L19.3285531,5.18721232 C20.3635908,5.18721232 20.9717882,5.1661709 21.9657451,5.14713342 Z M70.6756427,5.10805649 C70.7222344,5.10805649 70.7451545,5.11932868 70.7537026,5.14145036 L70.795131,5.3580629 C70.8899788,5.88649208 71.1193056,7.31925188 71.2036822,7.99173373 C71.0042897,8.08291324 70.7848577,8.12499609 70.5343645,8.08992704 L70.3630613,7.59312641 C69.9829557,6.55542963 69.563453,5.96674703 68.2408492,5.96674703 L66.1116573,5.96674703 C65.6246986,5.96674703 65.3812193,6.35551242 65.3812193,6.82243166 L65.3812193,10.7211072 L67.2268529,10.7211072 C68.9562576,10.7231111 69.016376,10.469612 69.0774963,9.39750133 C69.200739,9.28127251 69.6255754,9.28127251 69.748818,9.39750133 L69.720387,10.2067195 C69.7152937,10.3819812 69.7113693,10.5615291 69.7093189,10.7600218 L69.7077371,11.0738015 C69.7077371,11.7361055 69.7287785,12.1068353 69.748818,12.7901807 C69.6255754,12.9054075 69.200739,12.9054075 69.0774963,12.7901807 L69.052657,12.4927593 C68.9779676,11.8111845 68.74921,11.4635689 67.2308608,11.4635689 L65.3852272,11.4635689 L65.3852272,16.1608166 C65.3852272,16.6868522 65.6677834,16.9984657 66.1156652,16.9984657 L68.8750978,16.9984657 C70.4171337,16.9984657 71.1255284,15.8492031 71.5313273,14.4454395 C71.798854,14.3823152 72.0303097,14.424398 72.2417259,14.5426308 C72.0804083,15.5365877 71.7748067,16.8231205 71.4912484,17.7970379 L69.5386041,17.7629228 C69.3099941,17.760486 69.0891192,17.758963 68.8941353,17.758963 L64.1822173,17.7635317 C63.6446576,17.7706595 62.602606,17.7848711 61.8933525,17.7970379 C61.7721138,17.6818111 61.7721138,17.2710023 61.8933525,17.1537715 L62.3280987,17.1309199 C63.3864897,17.0552813 63.6588283,16.8186673 63.6588283,15.3802799 L63.6588283,7.56389141 L63.6528573,7.22872879 C63.6018602,5.93151581 63.2089055,5.84413527 61.8933525,5.78939788 C61.7721138,5.67316905 61.7721138,5.26336224 61.8933525,5.14713342 L64.4677991,5.18473147 L64.4677991,5.18473147 L69.6826878,5.18520838 C70.1686445,5.18520838 70.3309641,5.16516893 70.6756427,5.10805649 Z M82.7133419,5.96774901 L80.2164261,5.96774901 C79.669349,5.96774901 79.4659486,6.24128753 79.4258697,6.72824623 C79.2615462,8.69712246 78.938911,10.7231111 78.6954316,12.0487209 L78.4790432,13.1112213 C78.1002936,14.906807 77.7425557,16.3234167 77.7425557,16.6668128 C77.7425557,16.8992704 78.0070764,16.9984657 78.2906347,16.9984657 L82.7333813,16.9984657 C83.22034,16.9984657 83.4638194,16.9383474 83.4638194,16.218931 L83.4638194,6.72624229 C83.4638194,6.12205279 83.3415787,5.96774901 82.7133419,5.96774901 Z M6.63856968,8.64602186 L4.77289664,8.64602186 L4.77289664,15.0676645 C4.77289664,15.9744497 5.12559101,16.9082882 7.01731534,16.9082882 C11.129411,16.9082882 11.8859004,15.2349939 11.8859004,13.2300467 C11.8859004,10.7601841 10.3438645,8.64602186 6.63856968,8.64602186 Z M104.91405,0.988946989 L104.633064,0.994155675 C103.156635,1.04990446 101.344021,1.58247914 101.344021,3.9798353 C101.344021,6.88856186 103.021323,7.82240035 105.265742,7.82240035 L107.374894,7.82240035 L107.374894,1.97789398 C107.374894,1.07010677 107.267683,0.988946989 104.91405,0.988946989 Z M7.12753233,0.933838495 L6.68749,0.937605021 C4.77389861,0.973253871 4.77389861,1.26883135 4.77389861,2.11516423 L4.77289664,7.71318533 L6.77483796,7.71318533 C9.01925666,7.71318533 10.6153991,6.88856186 10.6153991,4.55697154 C10.6153991,1.75645803 8.64151298,0.933838495 7.12753233,0.933838495 Z"/>
	</g>
</svg>

<svg xmlns="http://www.w3.org/2000/svg" width="112" height="21"><path fill="#000" fill-rule="nonzero" d="m86.647 5.151.041.038v.37c0 .116-.08.15-.162.156l-.59.037c-.607.041-.734.26-.748.86l-.002 9.627c0 .67.394.903.736.979l.078.015c.439.073.596.138.608.37l.141 2.885-.48.01c-.068.005-.068.002-.068.002l-.068-.263c-.297-1.074-1.036-2.476-2.529-2.476h-5.882c-1.686 0-2.212 1.734-2.436 2.747l-.548-.02.142-2.884c.014-.233.226-.342.427-.371l.284-.046c.273-.052.51-.131.73-.344.53-.508.894-1.91 1.543-4.95l.148-.775c.35-1.91.541-3.6.541-4.681 0-.41-.183-.613-.71-.663l-.608-.059c-.103 0-.162-.04-.162-.117v-.409l.04-.038 1.66.035.252.003 5.786-.003c.723-.008 1.836-.035 1.836-.035zM112 .027v.576c0 .11-.055.19-.188.19L111 .85l-.316.028c-.878.1-1.119.34-1.119 1.179v13.697c0 .778.315 1.091 1.283 1.193l.909.073c.106 0 .216.08.216.218v.522l-.054.056-2.96-.054a49.425 49.425 0 0 0-.448-.002l-1.835.023c-.864.015-1.653.033-1.653.033l-.055-.056v-.522c0-.137.081-.218.218-.218l.702-.058c1.137-.087 1.487-.438 1.487-1.208v-6.89c-2.703 0-3.338.709-4.354 3.23l-.406 1.027c-1.075 2.697-2.067 4.638-3.867 4.666l-1.786.026-.025-.055v-.522l-.002-.001.007-.062c.017-.078.066-.13.13-.148l.295-.035c.84-.104 2.127-1.513 3.471-4.943l.126-.328c.678-1.783 1.488-2.47 2.22-2.909v-.082c-1.841-.273-4.03-1.647-4.03-4.447l.005-.234c.077-1.848 1.12-4.02 5.944-4.02l3.148.026L112 .027zM6.99 0c5.031 0 5.815 2.388 5.815 4.225 0 1.492-1.214 2.901-2.568 3.597v.056c2.353.687 4.165 2.195 4.165 4.831 0 2.359-1.435 5.107-6.817 5.107l-1.468-.009c-1.176-.015-1.607-.047-2.48-.047l-.846.004c-.918.008-1.639.03-2.67.052-.162-.165-.162-.742 0-.907l.34-.016c1.61-.091 2.014-.346 2.014-2.482V3.404L2.47 3C2.412 1.11 1.897.984.122.906-.041.742-.041.166.122 0l1.745.037C2.4.048 2.935.056 3.61.056 4.773.056 6.043 0 6.99 0zm52.246 5.151c.123.115.123.525 0 .642l-.298.015c-1.17.068-1.467.26-1.467 1.76v7.816l.006.335c.05 1.297.445 1.385 1.76 1.44.122.115.122.526 0 .642l-1.61-.031c-.312-.004-.64-.007-1.027-.007l-.786.005c-.6.007-1.108.02-1.831.033-.122-.115-.122-.526 0-.642l.298-.015c1.124-.064 1.442-.246 1.466-1.586l.001-8.145c0-1.208-.445-1.441-.935-1.441h-3.995c-.487 0-.934.231-.934 1.44v7.972l.006.335c.05 1.297.444 1.385 1.76 1.44.121.115.121.526 0 .642l-1.481-.03a70.995 70.995 0 0 0-1.137-.008l-.708.004c-.655.006-1.184.021-1.93.034-.121-.115-.121-.526 0-.642l.299-.015c1.124-.064 1.442-.246 1.466-1.586l.001-7.99c0-1.617-.344-1.715-1.765-1.775-.122-.116-.122-.526 0-.642l2.498.038 8.04-.001c.585-.005 1.46-.022 2.303-.037zm-25.338-.078c1.074 0 1.441.565 1.441 1.013 0 .566-.467.78-.893.78-.264 0-.548-.097-.75-.292-.225-.215-.387-.314-.648-.314-.528 0-.704.485-.81.98l-.108.553c-.242 1.167-.72 2.607-2.128 3.106v.099c1.333 0 2.115.76 2.66 2.01l.079.192c1.057 2.63 2.09 3.957 2.8 4.014l.324.02c.101 0 .161.06.161.155v.371l-.02.038-1.604-.02c-1.466-.019-2.2-1.374-2.993-3.275l-.346-.839c-.7-1.66-1.177-2.22-3.335-2.22v4.932c0 .545.266.732.96.804l.683.052c.08 0 .162.06.162.155v.371l-.041.038-.671-.022c-.416-.01-.787-.014-1.213-.015h-1.49l-.598.004c-.394.005-.788.015-1.262.033l-.04-.038v-.369c0-.097.062-.155.142-.155l.549-.038c.852-.062 1.096-.274 1.096-.818V6.574c0-.585-.306-.76-1.096-.82l-.527-.037c-.082 0-.163-.06-.163-.156v-.37l.041-.038 1.493.03c.233.003.47.006.732.007l.412.001c1.014 0 1.604-.02 2.598-.038l.04.038v.37c0 .1-.06.156-.162.156l-.526.037c-.812.062-1.116.274-1.116.82v4.053c.73 0 1.643-.02 2.13-.292 1.131-.588 1.448-1.735 1.632-2.778l.032-.183c.203-1.208.771-2.301 2.373-2.301zm60.664.074c.12.116.12.526 0 .644l-.298.015c-1.125.064-1.443.245-1.466 1.586l-.002 7.99c0 1.617.346 1.717 1.766 1.774.12.114.12.526 0 .642l-1.48-.029a69.128 69.128 0 0 0-1.136-.009l-.71.003c-.654.007-1.183.022-1.929.035-.12-.115-.12-.527 0-.642l.299-.015c1.171-.068 1.467-.261 1.467-1.76V7.566l-.006-.335c-.051-1.298-.444-1.386-1.76-1.44-.12-.117-.12-.527 0-.644l1.481.031c.23.004.465.007.725.008l.41.001c1.036 0 1.645-.02 2.639-.04zm-51.009 0c.121.116.121.526 0 .644l-.298.015c-1.124.064-1.443.245-1.467 1.586l-.001 7.99c.003 1.617.346 1.717 1.766 1.774.121.114.121.526 0 .642l-1.481-.029a69.146 69.146 0 0 0-1.136-.009l-.709.003c-.654.007-1.183.022-1.928.035-.122-.115-.122-.527 0-.642l.298-.015c1.124-.065 1.443-.246 1.467-1.586l.001-7.99c0-1.618-.345-1.715-1.766-1.774-.122-.117-.122-.527 0-.644l1.481.031c.23.004.466.007.725.008l.411.001c1.035 0 1.643-.02 2.637-.04zm-21.587 0c.122.116.122.526 0 .644l-.298.015c-1.125.064-1.444.245-1.467 1.586l-.002 7.99c.001 1.617.347 1.717 1.767 1.774.122.114.122.526 0 .642l-1.482-.029a69.146 69.146 0 0 0-1.135-.009l-.71.003c-.654.007-1.182.022-1.928.035-.122-.115-.122-.527 0-.642l.299-.015c1.124-.065 1.443-.246 1.466-1.586l.002-7.99c0-1.618-.346-1.715-1.767-1.774-.122-.117-.122-.527 0-.644l1.482.031c.23.004.465.007.725.008l.41.001c1.036 0 1.644-.02 2.638-.04zm48.71-.039c.046 0 .07.011.078.033l.041.217c.095.528.324 1.961.409 2.634-.2.09-.42.133-.67.098l-.17-.497c-.381-1.038-.8-1.626-2.123-1.626h-2.13c-.486 0-.73.389-.73.855v3.9h1.846c1.73.001 1.79-.252 1.85-1.324.124-.117.549-.117.672 0l-.029.809c-.005.175-.009.355-.01.553l-.002.314c0 .662.02 1.033.04 1.716-.122.115-.547.115-.67 0l-.025-.297c-.075-.682-.304-1.03-1.822-1.03h-1.846v4.698c0 .526.283.837.73.837h2.76c1.542 0 2.25-1.149 2.656-2.553a.95.95 0 0 1 .71.098 30.1 30.1 0 0 1-.75 3.254l-1.952-.034c-.229-.003-.45-.004-.645-.004l-4.712.005c-.537.007-1.58.02-2.289.033-.12-.115-.12-.526 0-.643l.435-.023c1.058-.076 1.33-.312 1.33-1.75V7.563l-.005-.335c-.051-1.297-.444-1.385-1.76-1.44-.12-.116-.12-.526 0-.642l2.575.038h5.215c.486 0 .648-.02.993-.077zm12.037.86h-2.497c-.547 0-.75.273-.79.76-.164 1.97-.487 3.995-.73 5.32l-.217 1.063c-.379 1.796-.736 3.212-.736 3.556 0 .232.264.331.548.331h4.442c.487 0 .73-.06.73-.78V6.727c0-.604-.121-.758-.75-.758zM6.64 8.646H4.773v6.422c0 .906.353 1.84 2.244 1.84 4.112 0 4.869-1.673 4.869-3.678 0-2.47-1.542-4.584-5.247-4.584zM104.914.989l-.28.005c-1.477.056-3.29.588-3.29 2.986 0 2.909 1.677 3.842 3.922 3.842h2.109V1.978c0-.908-.107-.99-2.46-.99zM7.128.934l-.44.004c-1.914.035-1.914.33-1.914 1.177l-.001 5.598h2.002c2.244 0 3.84-.824 3.84-3.156 0-2.8-1.973-3.623-3.487-3.623z"/></svg>
